X: 1819
T: Railway Hotel
B: australian traditional tunes wiki
M:2/4
L:1/16
R: Set Tune
Q: 1/4=100
K:G
V:1 
|:"G"G2AG "D7"F2GF|"C"E2FE "D7"D2EF|"G"G2G2 "D7"AGF2|"G"G4z4:|
|:"G"B2B2 BAG2|"D7"AGAB A2GA|"G"B2B2 BAGF|"C"E4D2EF|
"G"G2AG "D7"F2GF|"C"E2FE "D7"D2EF|"G"G2G2 "D7"AGF2|"G"G4z4:|
NOTES 
Bert Shields, of Unaderra, (near Wollongong) NSW, played this to Alan Musgrove about 30 years ago 
(c.1980). Bert learned this tune in a session that took place regularly at the Railway Hotel in Ivanhoe, 
NSW, when he was working on the Railways.  
% abcbook-tune_id 6342d53a20a627940b1e0ff2


% abcbook-boost 0
% abcbook-tablature 
% abcbook-transpose 
% abcbook-lastupdated 1665324385901
% abcbook-soundfonts 
% abcbook-repeats 1
% NFF Book 2008
%%begintext align
%%endtext

